source/img/social-icon/icon-telegram.svg

<svg width="22" height="18" viewBox="0 0 22 18" fill="none" xmlns="http://www.w3.org/2000/svg">
<path d="M21.4393 1.62225L18.2705 16.566C18.0313 17.6205 17.408 17.883 16.5223 17.3865L11.6938 13.8285L9.36427 16.0695C9.10627 16.3275 8.89102 16.5428 8.39377 16.5428L8.74102 11.6258L17.6893 3.54C18.0785 3.1935 17.6045 3.00075 17.0848 3.348L6.02227 10.314L1.25977 8.823C0.224021 8.49975 0.205271 7.78725 1.47577 7.29L20.1035 0.113253C20.966 -0.209997 21.7205 0.305253 21.4393 1.623V1.62225Z" fill="white"/>
</svg>

<svg width="22" height="18" fill="none" xmlns="http://www.w3.org/2000/svg"><path d="m21.44 1.62-3.17 14.95c-.24 1.05-.86 1.31-1.75.82l-4.83-3.56-2.33 2.24c-.25.26-.47.47-.97.47l.35-4.91 8.95-8.09c.39-.35-.09-.54-.6-.2L6.01 10.32 1.26 8.82C.22 8.5.21 7.8 1.48 7.3L20.1.11c.87-.32 1.62.2 1.34 1.51Z" fill="#fff"/></svg>
